cssgg/math-equal.svg

<svg
  width="24"
  height="24"
  viewBox="0 0 24 24"
  fill="none"
  xmlns="http://www.w3.org/2000/svg"
>
  <path
    d="M5 9C4.44772 9 4 9.44771 4 10C4 10.5523 4.44772 11 5 11H19C19.5523 11 20 10.5523 20 10C20 9.44771 19.5523 9 19 9H5Z"
    fill="currentColor"
  />
  <path
    d="M5 13C4.44772 13 4 13.4477 4 14C4 14.5523 4.44772 15 5 15H19C19.5523 15 20 14.5523 20 14C20 13.4477 19.5523 13 19 13H5Z"
    fill="currentColor"
  />
</svg>

<svg viewBox="0 0 24 24" xmlns="http://www.w3.org/2000/svg"><g><path d="M5 9c-.56 0-1 .44-1 1 0 .55.44 1 1 1h14c.55 0 1-.45 1-1 0-.56-.45-1-1-1H5Z"/><path d="M5 13c-.56 0-1 .44-1 1 0 .55.44 1 1 1h14c.55 0 1-.45 1-1 0-.56-.45-1-1-1H5Z"/></g></svg>
